X:47
T:Waltz. JBs.047
S:Jas.Blackshaw MS, 1837, N.Shropshire
Z:Tony Weatherall 2006
M:3/8
L:1/16
Q:3/8=60
A:North Shropshire
R:Waltz
K:F
fg|acâ€™ f2f2|acâ€™ f2f2|gb e2e2|df c2c2|gcâ€™ f2f2|gcâ€™ f2f2|gb e2e2|f4:|!
|:g2|a4f2|câ€™4g2|gagfef|g2câ€™2b2|a4f2|b4a2|gagfef|f4:|!
|:g>e|c2c2 g>e|c2c2 de|f2f2 câ€™>a|f2f2 g>e|c2c2 g>e|c2c2 de|fefage|f4:|!
|:g2|a2acâ€™acâ€™|b4a2|g2gbgb|a4g2|f2fafa|g4f2|e2egeg|f4:|

